X: 4985
T: Brendan Ring's
R: reel
M: 4/4
K: Dmajor
|:d2ce dA~A2|BGED CDEG|Adce dA~A2|Bdce d3e|
edce dA~A2|BGED CDEG|1 FA~A2 GB~B2|Ae~e2 cdec:|2 FA~A2 BGED|CDEC D2 z2||
|:~e3d efed|cAAB cBcd|~e3d efed|cAGE ED~D2|
~e3d efed|cAAB cBcd|~e3d efed|1 cAGE ED~D2:|2 cAGE D2z2||
|:AD~D2 ADBD|~A3G FGAF|GE~E2 GEBE|ABBA BcdB|
AD~D2 ADBD|~A3G FGAG|G2EG BGED|CDEC D2z2:|

